**kern	**silbe	**kern	**silbe	**harmony	**phrase	**leadinstrument	**rhyme	**timestamp	**harte
*ICvox	*	*ICvox	*	*M4/4	*	*	*	*	*M4/4
*VRlead	*	*VRharmonize	*	*	*	*	*	*	*
*Hstimme	*	*Nstimme	*	*	*	*	*	*	*
*G:	*	*G:	*	*G:	*	*	*	*	*G:
*M4/4	*	*M4/4	*	*	*	*	*	*	*
*clefC3	*	*clefG2	*	*	*	*	*	*	*
r;	.	r;	.	1r;	.	r	.	0	N.C.
=1	=1	=1	=1	=1	=1	=1	=1	=1	=1
*>Letter>A	*>Letter>A	*>Letter>A	*>Letter>A	*>Letter>A	*>Letter>A	*>Letter>A	*>Letter>A	*>Letter>A	*>Letter>A
*>Label>Intro	*>Label>Intro	*>Label>Intro	*>Label>Intro	*>Label>Intro	*>Label>Intro	*>Label>Intro	*>Label>Intro	*>Label>Intro	*>Label>Intro
1r	.	1r	.	1GM	newline	guitar	.	1.689	G:maj
=2	=2	=2	=2	=2	=2	=2	=2	=2	=2
1r	.	1r	.	1DM	.	guitar	.	3.38	D:maj
=3	=3	=3	=3	=3	=3	=3	=3	=3	=3
1r	.	1r	.	1CM	.	guitar	.	5.071	C:maj
=4	=4	=4	=4	=4	=4	=4	=4	=4	=4
1r	.	1r	.	1CM	.	guitar	.	6.762	C:maj
=5	=5	=5	=5	=5	=5	=5	=5	=5	=5
1r	.	1r	.	1GM	newline	guitar	.	8.453	G:maj
=6	=6	=6	=6	=6	=6	=6	=6	=6	=6
1r	.	1r	.	1DM	.	guitar	.	10.132	D:maj
=7	=7	=7	=7	=7	=7	=7	=7	=7	=7
1r	.	1r	.	1CM	.	guitar	.	11.811	C:maj
=8	=8	=8	=8	=8	=8	=8	=8	=8	=8
2r	.	1r	.	1CM	.	guitar	.	13.491	C:maj
4r	.	.	.	.	.	.	.	.	.
8e	Well,	.	.	.	.	.	.	.	.
8d	I	.	.	.	.	.	.	.	.
=9	=9	=9	=9	=9	=9	=9	=9	=9	=9
*>Letter>A	*>Letter>A	*>Letter>A	*>Letter>A	*>Letter>A	*>Letter>A	*>Letter>A	*>Letter>A	*>Letter>A	*>Letter>A
*>Label>Verse	*>Label>Verse	*>Label>Verse	*>Label>Verse	*>Label>Verse	*>Label>Verse	*>Label>Verse	*>Label>Verse	*>Label>Verse	*>Label>Verse
8dq	_	.	.	.	.	.	.	.	.
4e	heard	1r	.	1GM	newline	voice	.	15.17	G:maj
8d	some	.	.	.	.	.	.	.	.
[8d	peo	.	.	.	.	.	.	.	.
8d]	_	.	.	.	.	.	.	.	.
4d	ple	.	.	.	.	.	.	.	.
8d	tal	.	.	.	.	.	.	.	.
=10	=10	=10	=10	=10	=10	=10	=10	=10	=10
8e	_	1r	.	1DM	.	voice	.	16.806	D:maj
4d	king	.	.	.	.	.	.	.	.
8A	just	.	.	.	.	.	.	.	.
4B	_	.	.	.	.	.	.	.	.
8A	the	.	.	.	.	.	.	.	.
8B	o-	.	.	.	.	.	.	.	.
=11	=11	=11	=11	=11	=11	=11	=11	=11	=11
8A	-ther	1r	.	1CM	.	voice	.	18.441	C:maj
16B	day	.	.	.	.	.	.	.	.
16A	_	.	.	.	.	.	.	.	.
4G	_	.	.	.	.	.	.	.	.
2r	.	.	.	.	.	.	.	.	.
=12	=12	=12	=12	=12	=12	=12	=12	=12	=12
2r	.	1r	.	1CMm	.	voice	.	20.077	C:7
4r	.	.	.	.	.	.	.	.	.
8d	And	.	.	.	.	.	.	.	.
8d	they	.	.	.	.	.	.	.	.
=13	=13	=13	=13	=13	=13	=13	=13	=13	=13
4e	said	1r	.	1GM	newline	voice	.	21.712	G:maj
8d	you	.	.	.	.	.	.	.	.
8d	were	.	.	.	.	.	.	.	.
4d	gon-	.	.	.	.	.	.	.	.
8d	-na	.	.	.	.	.	.	.	.
8d	put	.	.	.	.	.	.	.	.
=14	=14	=14	=14	=14	=14	=14	=14	=14	=14
8r	.	1r	.	1DM	.	voice	.	23.356	D:maj
4d	me	.	.	.	.	.	.	.	.
[8d	on	.	.	.	.	.	.	.	.
4d]	_	.	.	.	.	.	.	.	.
8B	a	.	.	.	.	.	.	.	.
8Gq	_	.	.	.	.	.	.	.	.
[8A	shelf	.	.	.	.	.	.	.	.
=15	=15	=15	=15	=15	=15	=15	=15	=15	=15
8A]	_	1r	.	1CM	.	voice	.	24.999	C:maj
8G	_	.	.	.	.	.	.	.	.
4r	.	.	.	.	.	.	.	.	.
2r	.	.	.	.	.	.	.	.	.
=16	=16	=16	=16	=16	=16	=16	=16	=16	=16
4r	.	1r	.	1CM	.	voice	.	26.642	C:maj
8r	.	.	.	.	.	.	.	.	.
8G	But	.	.	.	.	.	.	.	.
8e	let	.	.	.	.	.	.	.	.
8d	me	.	.	.	.	.	.	.	.
16e	tell	.	.	.	.	.	.	.	.
16d	you,	.	.	.	.	.	.	.	.
8d	I	.	.	.	.	.	.	.	.
=17	=17	=17	=17	=17	=17	=17	=17	=17	=17
8e	got	1r	.	1GM	newline	voice	.	28.286	G:maj
8r	.	.	.	.	.	.	.	.	.
8d	some	.	.	.	.	.	.	.	.
[8d	news	.	.	.	.	.	A	.	.
4d]	_	.	.	.	.	.	.	.	.
8d	for	.	.	.	.	.	.	.	.
8d	you	.	.	.	.	.	A	.	.
=18	=18	=18	=18	=18	=18	=18	=18	=18	=18
12B	_	1r	.	1DM	.	voice	.	29.929	D:maj
6A	_	.	.	.	.	.	.	.	.
4r	.	.	.	.	.	.	.	.	.
8r	.	.	.	.	.	.	.	.	.
8~c	and	.	.	.	.	.	.	.	.
8~d	you'll	.	.	.	.	.	.	.	.
8d	soon	.	.	.	.	.	A	.	.
=19	=19	=19	=19	=19	=19	=19	=19	=19	=19
4e	_	1r	.	1CM	.	voice	.	31.573	C:maj
4e	find	.	.	.	.	.	.	.	.
8e	out	.	.	.	.	.	.	.	.
8d	_	.	.	.	.	.	.	.	.
8B	it's	.	.	.	.	.	.	.	.
[8c	true	.	.	.	.	.	A	.	.
=20	=20	=20	=20	=20	=20	=20	=20	=20	=20
4c]	_	1r	.	1CMm	.	voice	.	33.216	C:7
4r	.	.	.	.	.	.	.	.	.
8r	.	.	.	.	.	.	.	.	.
8A	and	.	.	.	.	.	.	.	.
8e	then	.	.	.	.	.	.	.	.
8d	you'll	.	.	.	.	.	A	.	.
=21	=21	=21	=21	=21	=21	=21	=21	=21	=21
8eq	_	.	.	.	.	.	.	.	.
4d	have	1r	.	1GM	newline	voice	.	34.859	G:maj
8d	to	.	.	.	.	.	.	.	.
[8d	eat	.	.	.	.	.	.	.	.
8d]	_	.	.	.	.	.	.	.	.
4d	your	.	.	.	.	.	.	.	.
[8d	lunch	.	.	.	.	.	.	.	.
=22	=22	=22	=22	=22	=22	=22	=22	=22	=22
8d]	_	1r	.	1DM	.	voice	.	36.497	D:maj
4d	all	.	.	.	.	.	.	.	.
[8d	by	.	.	.	.	.	.	.	.
8d]	_	.	.	.	.	.	.	.	.
8d	your-	.	.	.	.	.	.	.	.
16B	-self	.	.	.	.	.	.	.	.
16A	_	.	.	.	.	.	.	.	.
8G	_	.	.	.	.	.	.	.	.
=23	=23	=23	=23	=23	=23	=23	=23	=23	=23
1r	.	1r	.	1CM	.	voice	.	38.134	C:maj
=24	=24	=24	=24	=24	=24	=24	=24	=24	=24
*clefGv2	*	*	*	*	*	*	*	*	*
2r	.	2r	.	1CM	.	voice	.	39.772	C:maj
8B	Cuz	8B	Cuz	.	.	.	.	.	.
4d	I'm	4d	I'm	.	.	.	.	.	.
8f#q	_	8aq	_	.	.	.	.	.	.
[8g	al	[8d [8b	al	.	.	.	.	.	.
=25	=25	=25	=25	=25	=25	=25	=25	=25	=25
*>Letter>B	*>Letter>B	*>Letter>B	*>Letter>B	*>Letter>B	*>Letter>B	*>Letter>B	*>Letter>B	*>Letter>B	*>Letter>B
*>Label>Chorus	*>Label>Chorus	*>Label>Chorus	*>Label>Chorus	*>Label>Chorus	*>Label>Chorus	*>Label>Chorus	*>Label>Chorus	*>Label>Chorus	*>Label>Chorus
1g]	_	1d] 1b]	_	1GM	newline	voice	.	41.409	G:maj
=26	=26	=26	=26	=26	=26	=26	=26	=26	=26
2f#	_	2d 2a	_	1DM	.	voice	.	43.063	D:maj
8e	rea	8B 8g	rea	.	.	.	.	.	.
8d	_	8A 8f#	_	.	.	.	.	.	.
8B	dy	8G 8d	dy	.	.	.	b	.	.
[8c	gone	[8G [8e	gone	.	.	.	C	.	.
=27	=27	=27	=27	=27	=27	=27	=27	=27	=27
4c]	_	4G] 4e]	_	1CM	.	voice	.	44.716	C:maj
4r	.	4r	.	.	.	.	.	.	.
2r	.	2r	.	.	.	.	.	.	.
=28	=28	=28	=28	=28	=28	=28	=28	=28	=28
2r	.	2r	.	1CM	.	voice	.	46.369	C:maj
8B	And	8e	And	.	.	.	.	.	.
4d	I'm	4g	I'm	.	.	.	.	.	.
8f#q	_	8aq	_	.	.	.	.	.	.
[8g	fee	[8d [8b	fee	.	.	.	(B	.	.
=29	=29	=29	=29	=29	=29	=29	=29	=29	=29
1g]	_	1d] 1b]	_	1GM	newline	voice	.	48.022	G:maj
=30	=30	=30	=30	=30	=30	=30	=30	=30	=30
2.f#	_	2.d 2.a	_	1DM	.	voice	.	49.653	D:maj
4d	ling	4B 4f#	ling	.	.	.	b)	.	.
=31	=31	=31	=31	=31	=31	=31	=31	=31	=31
8d	strong	8A 8f#	strong	1CM	.	voice	C	51.284	C:maj
4c	_	4G 4e	_	.	.	.	.	.	.
8r	.	8r	.	.	.	.	.	.	.
2r	.	2r	.	.	.	.	.	.	.
=32	=32	=32	=32	=32	=32	=32	=32	=32	=32
2r	.	2r	.	1CM	.	voice	.	52.915	C:maj
8B	I	8e	I	.	.	.	.	.	.
4d	will	4g	will	.	.	.	.	.	.
8f#q	_	8aq	_	.	.	.	.	.	.
[8g	sing	[8d [8b	sing	.	.	.	B	.	.
=33	=33	=33	=33	=33	=33	=33	=33	=33	=33
1g]	_	1d_ 1b]	_	1GM	newline	voice	.	54.546	G:maj
=34	=34	=34	=34	=34	=34	=34	=34	=34	=34
4f#	_	4d] 4a	_	1DM	.	voice	.	56.178	D:maj
4f#	this	4d 4a	this	.	.	.	.	.	.
8cq	_	.	.	.	.	.	.	.	.
4d	vic-	4B 4g	vic-	.	.	.	.	.	.
8d	-'try	8A 8f#	-'try	.	.	.	b	.	.
[8d	song	[8A [8f#	song	.	.	.	C	.	.
=35	=35	=35	=35	=35	=35	=35	=35	=35	=35
8d]	_	8A] 8f#]	_	1CM	.	voice	.	57.809	C:maj
4c	_	4G 4e	_	.	.	.	.	.	.
8r	.	8r	.	.	.	.	.	.	.
2r	.	2r	.	.	.	.	.	.	.
=36	=36	=36	=36	=36	=36	=36	=36	=36	=36
2r	.	1r	.	1CM	.	voice	.	59.441	C:maj
8ee	Woo-	.	.	.	.	.	.	.	.
8ee	-hoo	.	.	.	.	.	.	.	.
8b	_	.	.	.	.	.	.	.	.
[8dd	hoo	.	.	.	.	.	.	.	.
=37	=37	=37	=37	=37	=37	=37	=37	=37	=37
8dd]	_	1r	.	1GM	newline	voice	.	61.073	G:maj
8ee	_	.	.	.	.	.	.	.	.
4r	.	.	.	.	.	.	.	.	.
8r	.	.	.	.	.	.	.	.	.
8B-q	_	.	.	.	.	.	.	.	.
4.A	My,	.	.	.	.	.	.	.	.
=38	=38	=38	=38	=38	=38	=38	=38	=38	=38
4A	my	1r	.	1DM	.	voice	.	62.72	D:maj
4r	.	.	.	.	.	.	.	.	.
8dd	Woo-	.	.	.	.	.	.	.	.
4a	-hoo	.	.	.	.	.	.	.	.
8b-q	_	.	.	.	.	.	.	.	.
[8a	hoo	.	.	.	.	.	.	.	.
=39	=39	=39	=39	=39	=39	=39	=39	=39	=39
8a]	_	1r	.	1CM	.	voice	.	64.367	C:maj
8g	_	.	.	.	.	.	.	.	.
4r	.	.	.	.	.	.	.	.	.
2r	.	.	.	.	.	.	.	.	.
=40	=40	=40	=40	=40	=40	=40	=40	=40	=40
2r	.	1r	.	1CM	.	voice	.	66.014	C:maj
4r	.	.	.	.	.	.	.	.	.
8r	.	.	.	.	.	.	.	.	.
8~G	The	.	.	.	.	.	.	.	.
=41	=41	=41	=41	=41	=41	=41	=41	=41	=41
*>Letter>A	*>Letter>A	*>Letter>A	*>Letter>A	*>Letter>A	*>Letter>A	*>Letter>A	*>Letter>A	*>Letter>A	*>Letter>A
*>Label>Verse	*>Label>Verse	*>Label>Verse	*>Label>Verse	*>Label>Verse	*>Label>Verse	*>Label>Verse	*>Label>Verse	*>Label>Verse	*>Label>Verse
8cq	_	.	.	.	.	.	.	.	.
8d	let-	1r	.	1GM	newline	voice	.	67.661	G:maj
4d	-ter	.	.	.	.	.	.	.	.
[8d	that	.	.	.	.	.	.	.	.
4d]	_	.	.	.	.	.	.	.	.
4d	you	.	.	.	.	.	.	.	.
=42	=42	=42	=42	=42	=42	=42	=42	=42	=42
8B	wrote	1r	.	1DM	.	voice	.	69.309	D:maj
8A	_	.	.	.	.	.	.	.	.
4A	me	.	.	.	.	.	.	.	.
4r	.	.	.	.	.	.	.	.	.
8d	made	.	.	.	.	.	.	.	.
8d	me	.	.	.	.	.	.	.	.
=43	=43	=43	=43	=43	=43	=43	=43	=43	=43
4.e	stop	1r	.	1CM	.	voice	.	70.958	C:maj
8e	and	.	.	.	.	.	.	.	.
8e	won	.	.	.	.	.	.	.	.
8d	_	.	.	.	.	.	.	.	.
8c	der	.	.	.	.	.	.	.	.
[8c	why	.	.	.	.	.	D	.	.
=44	=44	=44	=44	=44	=44	=44	=44	=44	=44
8c]	_	1r	.	1CMm	.	voice	.	72.606	C:7
8A	_	.	.	.	.	.	.	.	.
4G	_	.	.	.	.	.	.	.	.
4r	.	.	.	.	.	.	.	.	.
8d	but	.	.	.	.	.	.	.	.
8d	I	.	.	.	.	.	.	.	.
=45	=45	=45	=45	=45	=45	=45	=45	=45	=45
8e	guess	1r	.	1GM	newline	voice	.	74.255	G:maj
4d	you	.	.	.	.	.	.	.	.
[8d	felt	.	.	.	.	.	.	.	.
8d]	_	.	.	.	.	.	.	.	.
4d	like	.	.	.	.	.	.	.	.
8B	you	.	.	.	.	.	.	.	.
=46	=46	=46	=46	=46	=46	=46	=46	=46	=46
8cq	_	.	.	.	.	.	.	.	.
4d	had	1r	.	1DM	.	voice	.	75.885	D:maj
8d	to	.	.	.	.	.	.	.	.
[8d	set	.	.	.	.	.	.	.	.
8d]	_	.	.	.	.	.	.	.	.
4d	things	.	.	.	.	.	.	.	.
16B	right	.	.	.	.	.	D	.	.
16A	_	.	.	.	.	.	.	.	.
=47	=47	=47	=47	=47	=47	=47	=47	=47	=47
4G	_	1r	.	1CM	.	voice	.	77.516	C:maj
4r	.	.	.	.	.	.	.	.	.
2r	.	.	.	.	.	.	.	.	.
=48	=48	=48	=48	=48	=48	=48	=48	=48	=48
1r	.	1r	.	1CM	.	voice	.	79.146	C:maj
=49	=49	=49	=49	=49	=49	=49	=49	=49	=49
8dq	_	8eq	_	.	.	.	.	.	.
4e	Just	4g	Just	1GM	newline	voice	.	80.776	G:maj
8d	re-	8g	re-	.	.	.	.	.	.
[8d	-mem	[8g	-mem	.	.	.	.	.	.
8d]	_	8g]	_	.	.	.	.	.	.
4d	ber	4g	ber	.	.	.	.	.	.
[8d	this,	[8g	this,	.	.	.	.	.	.
=50	=50	=50	=50	=50	=50	=50	=50	=50	=50
8d]	_	8g]	_	1DM	.	voice	.	82.431	D:maj
4d	my	4g	my	.	.	.	.	.	.
16B	girl	16d	girl	.	.	.	.	.	.
16A	_	16c	_	.	.	.	.	.	.
8G	_	8B	_	.	.	.	.	.	.
8r	.	8r	.	.	.	.	.	.	.
8G	when	8B	when	.	.	.	.	.	.
8G	you	8B	you	.	.	.	.	.	.
=51	=51	=51	=51	=51	=51	=51	=51	=51	=51
8e	look	8g	look	1CM	.	voice	.	84.087	C:maj
8dq	_	8f#q	_	.	.	.	.	.	.
[8e	up	[8g	up	.	.	.	.	.	.
4e]	_	4g]	_	.	.	.	.	.	.
8e	in	8g	in	.	.	.	.	.	.
8d	_	8f	_	.	.	.	.	.	.
8c	the	8e	the	.	.	.	.	.	.
[8c	sky	[8e	sky	.	.	.	D	.	.
=52	=52	=52	=52	=52	=52	=52	=52	=52	=52
4c]	_	4e]	_	1CM	.	voice	.	85.742	C:maj
4r	.	4r	.	.	.	.	.	.	.
4r	.	4r	.	.	.	.	.	.	.
8e	you	8g	you	.	.	.	.	.	.
8d	can	8g	can	.	.	.	.	.	.
=53	=53	=53	=53	=53	=53	=53	=53	=53	=53
8eq	_	8~bq	_	.	.	.	.	.	.
4d	see	4g	see	1GM	newline	voice	.	87.397	G:maj
8d	the	8g	the	.	.	.	.	.	.
[8d	stars	[8g	stars	.	.	.	.	.	.
4d]	_	4g]	_	.	.	.	.	.	.
8B	and	8e	and	.	.	.	.	.	.
8cq	_	8f#q	_	.	.	.	.	.	.
[8d	still	[8g	still	.	.	.	.	.	.
=54	=54	=54	=54	=54	=54	=54	=54	=54	=54
8d]	_	8g]	_	1DM	.	voice	.	89.023	D:maj
4d	not	4g	not	.	.	.	.	.	.
[8d	see	[8g	see	.	.	.	.	.	.
8d]	_	8g]	_	.	.	.	.	.	.
8d	the	8g	the	.	.	.	.	.	.
16B	light	16d	light	.	.	.	D	.	.
16A	_	16c	_	.	.	.	.	.	.
8G	_	8B	_	.	.	.	.	.	.
=55	=55	=55	=55	=55	=55	=55	=55	=55	=55
2r	.	1r	.	1CM	.	voice	.	90.65	C:maj
8r	.	.	.	.	.	.	.	.	.
8A	That's	.	.	.	.	.	.	.	.
[4G	right	.	.	.	.	.	.	.	.
=56	=56	=56	=56	=56	=56	=56	=56	=56	=56
8G]	_	2r	.	1CM	.	voice	.	92.277	C:maj
8r	.	.	.	.	.	.	.	.	.
4r	.	.	.	.	.	.	.	.	.
8B	Cuz	8B	Cuz	.	.	.	.	.	.
4d	I'm	4d	I'm	.	.	.	.	.	.
8f#q	_	8aq	_	.	.	.	.	.	.
[8g	al	[8d [8b	al	.	.	.	.	.	.
=57	=57	=57	=57	=57	=57	=57	=57	=57	=57
*>Letter>B	*>Letter>B	*>Letter>B	*>Letter>B	*>Letter>B	*>Letter>B	*>Letter>B	*>Letter>B	*>Letter>B	*>Letter>B
*>Label>Chorus	*>Label>Chorus	*>Label>Chorus	*>Label>Chorus	*>Label>Chorus	*>Label>Chorus	*>Label>Chorus	*>Label>Chorus	*>Label>Chorus	*>Label>Chorus
1g]	_	1d] 1b]	_	1GM	newline	voice	.	93.904	G:maj
=58	=58	=58	=58	=58	=58	=58	=58	=58	=58
2f#	_	2d 2a	_	1DM	.	voice	.	95.545	D:maj
8e	rea	8B 8g	rea	.	.	.	.	.	.
8d	_	8A 8f#	_	.	.	.	.	.	.
8B	dy	8G 8e	dy	.	.	.	b	.	.
[8c	gone	[8G [8e	gone	.	.	.	C	.	.
=59	=59	=59	=59	=59	=59	=59	=59	=59	=59
4c]	_	4G] 4e]	_	1CM	.	voice	.	97.186	C:maj
4r	.	4r	.	.	.	.	.	.	.
2r	.	2r	.	.	.	.	.	.	.
=60	=60	=60	=60	=60	=60	=60	=60	=60	=60
2r	.	2r	.	1CM	.	voice	.	98.827	C:maj
8B	And	8e	And	.	.	.	.	.	.
4d	I'm	4g	I'm	.	.	.	.	.	.
8f#q	_	8aq	_	.	.	.	.	.	.
[8g	fee	[8d [8b	fee	.	.	.	(B	.	.
=61	=61	=61	=61	=61	=61	=61	=61	=61	=61
1g]	_	1d] 1b]	_	1GM	newline	voice	.	100.468	G:maj
=62	=62	=62	=62	=62	=62	=62	=62	=62	=62
2.f#	_	2d 2a	_	1DM	.	voice	.	102.103	D:maj
.	.	4AQ 4f#Q	_	.	.	.	.	.	.
.	.	4B 4g	_	.	.	.	.	.	.
4d	ling	4B 4f#	ling	.	.	.	b)	.	.
=63	=63	=63	=63	=63	=63	=63	=63	=63	=63
8d	strong	16B 16g	strong	1CM	.	voice	C	103.738	C:maj
.	.	16A 16f#	_	.	.	.	.	.	.
4c	_	4G 4e	_	.	.	.	.	.	.
8r	.	8r	.	.	.	.	.	.	.
2r	.	2r	.	.	.	.	.	.	.
=64	=64	=64	=64	=64	=64	=64	=64	=64	=64
2r	.	2r	.	1CM	.	voice	.	105.374	C:maj
8B	I	8e	I	.	.	.	.	.	.
4d	will	4g	will	.	.	.	.	.	.
8f#q	_	8dq 8aq	_	.	.	.	.	.	.
[8g	sing	[8e [8b	sing	.	.	.	B	.	.
=65	=65	=65	=65	=65	=65	=65	=65	=65	=65
1g]	_	8e] 8b_	_	1GM	newline	voice	.	107.009	G:maj
.	.	[8d 8b_	_	.	.	.	.	.	.
.	.	2.d] 2.b]	_	.	.	.	.	.	.
=66	=66	=66	=66	=66	=66	=66	=66	=66	=66
4f#	_	4d 4a	_	1DM	.	voice	.	108.645	D:maj
4f#	this	4d 4a	this	.	.	.	.	.	.
8cq	_	.	.	.	.	.	.	.	.
4d	vic-	4B 4g	vic-	.	.	.	.	.	.
8d	-'try	8A 8f#	-'try	.	.	.	b	.	.
[8d	song	[8A [8f#	song	.	.	.	C	.	.
=67	=67	=67	=67	=67	=67	=67	=67	=67	=67
8d]	_	8A] 8f#]	_	1CM	.	voice	.	110.28	C:maj
4c	_	4G 4e	_	.	.	.	.	.	.
8r	.	8r	.	.	.	.	.	.	.
2r	.	2r	.	.	.	.	.	.	.
=68	=68	=68	=68	=68	=68	=68	=68	=68	=68
2r	.	2r	.	1CM	.	voice	.	111.916	C:maj
8ee	Woo-	8cc	Woo-	.	.	.	.	.	.
8ee	-hoo	8cc	-hoo	.	.	.	.	.	.
8b	_	8~g	_	.	.	.	.	.	.
8dd	hoo	[8b	hoo	.	.	.	.	.	.
=69	=69	=69	=69	=69	=69	=69	=69	=69	=69
8dd	_	8dd	_	1GM	newline	voice	.	113.552	G:maj
8ee	_	8ee	_	.	.	.	.	.	.
4r	.	4r	.	.	.	.	.	.	.
8r	.	2r	.	.	.	.	.	.	.
8A	My,	.	.	.	.	.	.	.	.
8B	_	.	.	.	.	.	.	.	.
8A	_	.	.	.	.	.	.	.	.
=70	=70	=70	=70	=70	=70	=70	=70	=70	=70
4A	my	2r	.	1DM	.	voice	.	115.184	D:maj
4r	.	.	.	.	.	.	.	.	.
8dd	Woo-	8b]	Woo-	.	.	.	.	.	.
8b	-hoo	8g	-hoo	.	.	.	.	.	.
8a	_	8f#	_	.	.	.	.	.	.
8b-q	_	8gq	_	.	.	.	.	.	.
[8a	hoo	[8f#	hoo	.	.	.	.	.	.
=71	=71	=71	=71	=71	=71	=71	=71	=71	=71
8a]	_	8f#]	_	1CM	.	voice	.	116.817	C:maj
8g	_	8e	_	.	.	.	.	.	.
4r	.	4r	.	.	.	.	.	.	.
2r	.	2r	.	.	.	.	.	.	.
=72	=72	=72	=72	=72	=72	=72	=72	=72	=72
1r	.	1r	.	1CM	.	voice	.	118.45	C:maj
=73	=73	=73	=73	=73	=73	=73	=73	=73	=73
*>Letter>A	*>Letter>A	*>Letter>A	*>Letter>A	*>Letter>A	*>Letter>A	*>Letter>A	*>Letter>A	*>Letter>A	*>Letter>A
*>Label>Solo	*>Label>Solo	*>Label>Solo	*>Label>Solo	*>Label>Solo	*>Label>Solo	*>Label>Solo	*>Label>Solo	*>Label>Solo	*>Label>Solo
1r	.	1r	.	1GM	newline	guitar	.	120.082	G:maj
=74	=74	=74	=74	=74	=74	=74	=74	=74	=74
1r	.	1r	.	1DM	.	guitar	.	121.719	D:maj
=75	=75	=75	=75	=75	=75	=75	=75	=75	=75
1r	.	1r	.	1CM	.	guitar	.	123.356	C:maj
=76	=76	=76	=76	=76	=76	=76	=76	=76	=76
1r	.	1r	.	1CM	.	guitar	.	124.993	C:maj
=77	=77	=77	=77	=77	=77	=77	=77	=77	=77
1r	.	1r	.	1GM	newline	guitar	.	126.63	G:maj
=78	=78	=78	=78	=78	=78	=78	=78	=78	=78
1r	.	1r	.	1DM	.	guitar	.	128.268	D:maj
=79	=79	=79	=79	=79	=79	=79	=79	=79	=79
1r	.	1r	.	1CM	.	guitar	.	129.907	C:maj
=80	=80	=80	=80	=80	=80	=80	=80	=80	=80
1r	.	1r	.	1CM	.	guitar	.	131.545	C:maj
=81	=81	=81	=81	=81	=81	=81	=81	=81	=81
1r	.	1r	.	1GM	newline	guitar	.	133.184	G:maj
=82	=82	=82	=82	=82	=82	=82	=82	=82	=82
1r	.	1r	.	1DM	.	guitar	.	134.825	D:maj
=83	=83	=83	=83	=83	=83	=83	=83	=83	=83
1r	.	1r	.	1CM	.	guitar	.	136.465	C:maj
=84	=84	=84	=84	=84	=84	=84	=84	=84	=84
1r	.	1r	.	1CM	.	guitar	.	138.106	C:maj
=85	=85	=85	=85	=85	=85	=85	=85	=85	=85
1r	.	1r	.	1GM	newline	guitar	.	139.747	G:maj
=86	=86	=86	=86	=86	=86	=86	=86	=86	=86
1r	.	1r	.	1DM	.	guitar	.	141.386	D:maj
=87	=87	=87	=87	=87	=87	=87	=87	=87	=87
1r	.	1r	.	1CM	.	guitar	.	143.025	C:maj
=88	=88	=88	=88	=88	=88	=88	=88	=88	=88
2r	.	1r	.	1CM	.	guitar	.	144.665	C:maj
4r	.	.	.	.	.	.	.	.	.
8d	Well,	.	.	.	.	.	.	.	.
8B	I	.	.	.	.	.	.	.	.
=89	=89	=89	=89	=89	=89	=89	=89	=89	=89
*>Letter>A	*>Letter>A	*>Letter>A	*>Letter>A	*>Letter>A	*>Letter>A	*>Letter>A	*>Letter>A	*>Letter>A	*>Letter>A
*>Label>Verse	*>Label>Verse	*>Label>Verse	*>Label>Verse	*>Label>Verse	*>Label>Verse	*>Label>Verse	*>Label>Verse	*>Label>Verse	*>Label>Verse
8dq	_	.	.	.	.	.	.	.	.
4d	know	1r	.	1GM	newline	voice	.	146.304	G:maj
8d	it	.	.	.	.	.	.	.	.
[8d	was	.	.	.	.	.	.	.	.
8d]	_	.	.	.	.	.	.	.	.
4d	n't	.	.	.	.	.	.	.	.
8d	you	.	.	.	.	.	.	.	.
=90	=90	=90	=90	=90	=90	=90	=90	=90	=90
8e	_	1r	.	1DM	.	voice	.	147.943	D:maj
4d	_	.	.	.	.	.	.	.	.
8d	who	.	.	.	.	.	.	.	.
8d	held	.	.	.	.	.	.	.	.
8d	me	.	.	.	.	.	.	.	.
16B	down	.	.	.	.	.	.	.	.
16A	_	.	.	.	.	.	.	.	.
8G	_	.	.	.	.	.	.	.	.
=91	=91	=91	=91	=91	=91	=91	=91	=91	=91
1r	.	1r	.	1CM	.	voice	.	149.583	C:maj
=92	=92	=92	=92	=92	=92	=92	=92	=92	=92
2r	.	1r	.	1CMm	.	voice	.	151.222	C:7
4r	.	.	.	.	.	.	.	.	.
8e	Hea-	.	.	.	.	.	.	.	.
8d	-ven	.	.	.	.	.	.	.	.
=93	=93	=93	=93	=93	=93	=93	=93	=93	=93
8e	knows	1r	.	1GM	newline	voice	.	152.862	G:maj
8d	_	.	.	.	.	.	.	.	.
8d	it	.	.	.	.	.	.	.	.
[8d	was	.	.	.	.	.	.	.	.
8d]	_	.	.	.	.	.	.	.	.
4d	n't	.	.	.	.	.	.	.	.
8d	you	.	.	.	.	.	.	.	.
=94	=94	=94	=94	=94	=94	=94	=94	=94	=94
8e	_	1r	.	1DM	.	voice	.	154.505	D:maj
4d	_	.	.	.	.	.	.	.	.
8d	who	.	.	.	.	.	.	.	.
8d	set	.	.	.	.	.	.	.	.
8d	me	.	.	.	.	.	.	.	.
16B	free	.	.	.	.	.	B	.	.
16A	_	.	.	.	.	.	.	.	.
8G	_	.	.	.	.	.	.	.	.
=95	=95	=95	=95	=95	=95	=95	=95	=95	=95
1r	.	1r	.	1CM	.	voice	.	156.149	C:maj
=96	=96	=96	=96	=96	=96	=96	=96	=96	=96
2r	.	1r	.	1CM	.	voice	.	157.792	C:maj
4r	.	.	.	.	.	.	.	.	.
8e	So	.	.	.	.	.	.	.	.
8d	_	.	.	.	.	.	.	.	.
=97	=97	=97	=97	=97	=97	=97	=97	=97	=97
6e	of-	6g	of-	1GM	newline	voice	.	159.435	G:maj
6d	-ten-	6g	-ten-	.	.	.	.	.	.
[6d	-times	[6g	-times	.	.	.	.	.	.
4d]	_	4g]	_	.	.	.	.	.	.
8d	it	8g	it	.	.	.	.	.	.
8d	hap	8g	hap	.	.	.	.	.	.
=98	=98	=98	=98	=98	=98	=98	=98	=98	=98
12B	_	12e	_	1DM	.	voice	.	161.068	D:maj
6A	pens	6d	pens	.	.	.	.	.	.
4r	.	4r	.	.	.	.	.	.	.
4r	.	4r	.	.	.	.	.	.	.
8d	that	8~d	that	.	.	.	.	.	.
8d	we	8~d	we	.	.	.	.	.	.
=99	=99	=99	=99	=99	=99	=99	=99	=99	=99
8e	live	8g	live	1CM	.	voice	.	162.702	C:maj
8dq	_	8eq	_	.	.	.	.	.	.
[8e	our	[8g	our	.	.	.	.	.	.
4e]	_	4g]	_	.	.	.	.	.	.
4e	lives	4g	lives	.	.	.	.	.	.
4e	in	4g	in	.	.	.	.	.	.
=100	=100	=100	=100	=100	=100	=100	=100	=100	=100
8d	chains	8f	chains	1CM	.	voice	.	164.335	C:maj
8c	_	8e	_	.	.	.	.	.	.
4r	.	4r	.	.	.	.	.	.	.
4r	.	4r	.	.	.	.	.	.	.
8~c	and	8~e	and	.	.	.	.	.	.
8d	we	8g	we	.	.	.	.	.	.
=101	=101	=101	=101	=101	=101	=101	=101	=101	=101
8eq	_	.	.	.	.	.	.	.	.
8d	ne-	8g	ne-	1GM	newline	voice	.	165.968	G:maj
4d	-ver	4g	-ver	.	.	.	.	.	.
[8d	e	[8g	e	.	.	.	.	.	.
8d]	_	8g]	_	.	.	.	.	.	.
4d	ven	4g	ven	.	.	.	.	.	.
8d	know	8g	know	.	.	.	.	.	.
=102	=102	=102	=102	=102	=102	=102	=102	=102	=102
8e	_	8a	_	1DM	.	voice	.	167.626	D:maj
8d	_	8g	_	.	.	.	.	.	.
8d	we	8g	we	.	.	.	.	.	.
[8d	have	[8g	have	.	.	.	.	.	.
8d]	_	8g]	_	.	.	.	.	.	.
8d	the	8g	the	.	.	.	.	.	.
16B	key	16d	key	.	.	.	B	.	.
16A	_	16c	_	.	.	.	.	.	.
8G	_	8B	_	.	.	.	.	.	.
=103	=103	=103	=103	=103	=103	=103	=103	=103	=103
1r	.	1r	.	1CM	.	voice	.	169.284	C:maj
=104	=104	=104	=104	=104	=104	=104	=104	=104	=104
8G	Yeah!	2r	.	1CM	.	voice	.	170.942	C:maj
4r	.	.	.	.	.	.	.	.	.
8~G	But	.	.	.	.	.	.	.	.
8B	me,	8B	Me,	.	.	.	.	.	.
4d	I'm	4d	I'm	.	.	.	.	.	.
8f#q	_	8aq	_	.	.	.	.	.	.
[8g	al	[8d [8b	al	.	.	.	.	.	.
=105	=105	=105	=105	=105	=105	=105	=105	=105	=105
*>Letter>B	*>Letter>B	*>Letter>B	*>Letter>B	*>Letter>B	*>Letter>B	*>Letter>B	*>Letter>B	*>Letter>B	*>Letter>B
*>Label>Chorus	*>Label>Chorus	*>Label>Chorus	*>Label>Chorus	*>Label>Chorus	*>Label>Chorus	*>Label>Chorus	*>Label>Chorus	*>Label>Chorus	*>Label>Chorus
1g]	_	1d] 1b]	_	1GM	newline	voice	.	172.599	G:maj
=106	=106	=106	=106	=106	=106	=106	=106	=106	=106
2f#	_	2d 2a	_	1DM	.	voice	.	174.235	D:maj
8e	rea	8B 8g	rea	.	.	.	.	.	.
8d	_	8A 8f#	_	.	.	.	.	.	.
8B	dy	8G 8e	dy	.	.	.	b	.	.
[8c	gone	[8G [8e	gone	.	.	.	C	.	.
=107	=107	=107	=107	=107	=107	=107	=107	=107	=107
4c]	_	4G] 4e]	_	1CM	.	voice	.	175.871	C:maj
4r	.	4r	.	.	.	.	.	.	.
2r	.	2r	.	.	.	.	.	.	.
=108	=108	=108	=108	=108	=108	=108	=108	=108	=108
2r	.	2r	.	1CM	.	voice	.	177.506	C:maj
8B	And	8e	And	.	.	.	.	.	.
4d	I'm	4g	I'm	.	.	.	.	.	.
8f#q	_	8aq	_	.	.	.	.	.	.
[8g	fee	[8d [8b	fee	.	.	.	(B	.	.
=109	=109	=109	=109	=109	=109	=109	=109	=109	=109
1g]	_	1d] 1b]	_	1GM	newline	voice	.	179.142	G:maj
=110	=110	=110	=110	=110	=110	=110	=110	=110	=110
2.f#	_	2d 2a 2dd	_	1DM	.	voice	.	180.778	D:maj
.	.	4AQ 4f#Q 4aQ	_	.	.	.	.	.	.
.	.	4B 4g 4b	_	.	.	.	.	.	.
4d	ling	8A 8f# 8a	ling	.	.	.	b)	.	.
.	.	8G 8e 8g	_	.	.	.	.	.	.
=111	=111	=111	=111	=111	=111	=111	=111	=111	=111
8d	strong	8A 8f# 8a	strong	1CM	.	voice	C	182.415	C:maj
4c	_	4G 4e 4g	_	.	.	.	.	.	.
8r	.	8r	.	.	.	.	.	.	.
2r	.	2r	.	.	.	.	.	.	.
=112	=112	=112	=112	=112	=112	=112	=112	=112	=112
*	*	*clefG2	*	*	*	*	*	*	*
2r	.	2r	.	1CM	.	voice	.	184.051	C:maj
8B	I	8e	I	.	.	.	.	.	.
4d	will	4g	will	.	.	.	.	.	.
8f#q	_	8dq 8aq	_	.	.	.	.	.	.
[8g	sing	[8e [8b	sing	.	.	.	B	.	.
=113	=113	=113	=113	=113	=113	=113	=113	=113	=113
2g]	_	8e] 8b_	_	1GM	newline	voice	.	185.687	G:maj
.	.	[8d 8b_	_	.	.	.	.	.	.
.	.	2.d_ 2.b]	_	.	.	.	.	.	.
8d	I	.	.	.	.	.	.	.	.
4d	will	.	.	.	.	.	.	.	.
8eq	_	.	.	.	.	.	.	.	.
[8f#	siing	.	.	.	.	.	B	.	.
=114	=114	=114	=114	=114	=114	=114	=114	=114	=114
4f#]	_	4d] 4a	_	1DM	.	voice	.	187.323	D:maj
4f#	this	4d 4a	this	.	.	.	.	.	.
8cq	_	.	.	.	.	.	.	.	.
4d	vic-	4B 4g	vic-	.	.	.	.	.	.
8d	-'try	8A 8f#	-'try	.	.	.	b	.	.
[8d	song	[8A [8f#	song	.	.	.	C	.	.
=115	=115	=115	=115	=115	=115	=115	=115	=115	=115
8d]	_	8A] 8f#]	_	1CM	.	voice	.	188.959	C:maj
4c	_	4G 4e	_	.	.	.	.	.	.
8r	.	8r	.	.	.	.	.	.	.
2r	.	2r	.	.	.	.	.	.	.
=116	=116	=116	=116	=116	=116	=116	=116	=116	=116
2r	.	2r	.	1CM	.	voice	.	190.594	C:maj
8B	Cuz	8B	Cuz	.	.	.	.	.	.
4d	I'm	4d	I'm	.	.	.	.	.	.
8f#q	_	8aq	_	.	.	.	.	.	.
8g	al	[8d [8b	al	.	.	.	.	.	.
=117	=117	=117	=117	=117	=117	=117	=117	=117	=117
1g	_	1d] 1b]	_	1GM	newline	voice	.	192.23	G:maj
=118	=118	=118	=118	=118	=118	=118	=118	=118	=118
2f#	_	2d 2a	_	1DM	.	voice	.	193.872	D:maj
8e	rea	8B 8g	rea	.	.	.	.	.	.
8d	_	8A 8f#	_	.	.	.	.	.	.
8B	dy	8G 8e	dy	.	.	.	b	.	.
[8c	gone	[8G [8e	gone	.	.	.	C	.	.
=119	=119	=119	=119	=119	=119	=119	=119	=119	=119
4c]	_	4G] 4e]	_	1CM	.	voice	.	195.515	C:maj
4r	.	4r	.	.	.	.	.	.	.
2r	.	2r	.	.	.	.	.	.	.
=120	=120	=120	=120	=120	=120	=120	=120	=120	=120
2r	.	2r	.	1CM	.	voice	.	197.157	C:maj
8e	Cuz	4r	.	.	.	.	.	.	.
4g	I'm	.	.	.	.	.	.	.	.
.	.	8r	.	.	.	.	.	.	.
8gq	_	.	.	.	.	.	.	.	.
[8a	al	[8c [8e [8cc	al	.	.	.	.	.	.
=121	=121	=121	=121	=121	=121	=121	=121	=121	=121
*>Letter>B	*>Letter>B	*>Letter>B	*>Letter>B	*>Letter>B	*>Letter>B	*>Letter>B	*>Letter>B	*>Letter>B	*>Letter>B
*>Label>Chorus	*>Label>Chorus	*>Label>Chorus	*>Label>Chorus	*>Label>Chorus	*>Label>Chorus	*>Label>Chorus	*>Label>Chorus	*>Label>Chorus	*>Label>Chorus
8a]	_	1c] 1e] 1cc]	_	1GM	newline	voice	.	198.799	G:maj
[8g	_	.	.	.	.	.	.	.	.
2.g_	_	.	.	.	.	.	.	.	.
=122	=122	=122	=122	=122	=122	=122	=122	=122	=122
2g]	_	2d 2b	_	1DM	.	voice	.	200.485	D:maj
8g	rea	8B 8d	rea	.	.	.	.	.	.
8a	_	8c 8e	_	.	.	.	.	.	.
8g	dy	8B 8d	dy	.	.	.	b	.	.
[8g	gone	[8B [8d	gone	.	.	.	C	.	.
=123	=123	=123	=123	=123	=123	=123	=123	=123	=123
8g]	_	8B] 8d]	_	1CM	.	voice	.	202.172	C:maj
4f	_	4A 4c	_	.	.	.	.	.	.
8r	.	8r	.	.	.	.	.	.	.
2r	.	2r	.	.	.	.	.	.	.
=124	=124	=124	=124	=124	=124	=124	=124	=124	=124
2r	.	2r	.	1CM	.	voice	.	203.858	C:maj
8e	And	4r	.	.	.	.	.	.	.
4g	I'm	.	.	.	.	.	.	.	.
.	.	8r	.	.	.	.	.	.	.
8f#q	_	.	.	.	.	.	.	.	.
[8g	fee	8B 8d 8b	fee	.	.	.	(B	.	.
=125	=125	=125	=125	=125	=125	=125	=125	=125	=125
1g_	_	1c 1e 1cc	_	1GM	newline	voice	.	205.544	G:maj
=126	=126	=126	=126	=126	=126	=126	=126	=126	=126
2g]	_	2d 2b	_	1DM	.	voice	.	207.164	D:maj
8gq	_	4BQ 4dQ	_	.	.	.	.	.	.
4a	_	4c 4e	_	.	.	.	.	.	.
4g	ling	4B 4d	ling	.	.	.	b)	.	.
=127	=127	=127	=127	=127	=127	=127	=127	=127	=127
8g	strong	8B 8d	strong	1CM	.	voice	C	208.784	C:maj
4f	_	4A 4c	_	.	.	.	.	.	.
8r	.	8r	.	.	.	.	.	.	.
2r	.	2r	.	.	.	.	.	.	.
=128	=128	=128	=128	=128	=128	=128	=128	=128	=128
2r	.	2r	.	1CM	.	voice	.	210.404	C:maj
8e	I	4r	.	.	.	.	.	.	.
4g	will	.	.	.	.	.	.	.	.
.	.	8r	.	.	.	.	.	.	.
8f#q	_	.	.	.	.	.	.	.	.
[8g	sing	[8c [8e [8cc	sing	.	.	.	B	.	.
=129	=129	=129	=129	=129	=129	=129	=129	=129	=129
1g_	_	1c] 1e] 1cc]	_	1GM	newline	voice	.	212.024	G:maj
=130	=130	=130	=130	=130	=130	=130	=130	=130	=130
4g]	_	4d 4b	_	1DM	.	voice	.	213.656	D:maj
4g	this	4d 4b	this	.	.	.	.	.	.
8dq	_	4BQ 4gQ	_	.	.	.	.	.	.
4e	vic-	4c 4a	vic-	.	.	.	.	.	.
8d	-'try	8B 8g	-'try	.	.	.	b	.	.
[8d	song	[8B [8g	song	.	.	.	C	.	.
=131	=131	=131	=131	=131	=131	=131	=131	=131	=131
8d]	_	8B] 8g]	_	1CM	.	voice	.	215.289	C:maj
4c	_	4A 4f#	_	.	.	.	.	.	.
8r	.	8r	.	.	.	.	.	.	.
2r	.	2r	.	.	.	.	.	.	.
=132	=132	=132	=132	=132	=132	=132	=132	=132	=132
2r	.	2r	.	1CM	.	voice	.	216.921	C:maj
8e	Cuz	4r	.	.	.	.	.	.	.
4g	I'm	.	.	.	.	.	.	.	.
.	.	8r	.	.	.	.	.	.	.
[8g	al	[8c [8e [8cc	Al	.	.	.	.	.	.
=133	=133	=133	=133	=133	=133	=133	=133	=133	=133
1g_	_	1c] 1e] 1cc]	_	1GM	newline	voice	.	218.554	G:maj
=134	=134	=134	=134	=134	=134	=134	=134	=134	=134
2g]	_	2d 2b	_	1DM	.	voice	.	220.178	D:maj
8g	rea	8B 8d	rea	.	.	.	.	.	.
8a	_	8c 8e	_	.	.	.	.	.	.
8g	dy	8B 8d	dy	.	.	.	b	.	.
[8g	gone	[8B [8d	gone	.	.	.	C	.	.
=135	=135	=135	=135	=135	=135	=135	=135	=135	=135
8g]	_	8B] 8d]	_	1CM	.	voice	.	221.803	C:maj
4f	_	4A 4c	_	.	.	.	.	.	.
8r	.	8r	.	.	.	.	.	.	.
2r	.	2r	.	.	.	.	.	.	.
=136	=136	=136	=136	=136	=136	=136	=136	=136	=136
2r	.	2r	.	1CM	.	voice	.	223.427	C:maj
8e	Cuz	4r	.	.	.	.	.	.	.
4g	I'm	.	.	.	.	.	.	.	.
.	.	8r	.	.	.	.	.	.	.
[8g	al	[8c [8e [8cc	Al	.	.	.	.	.	.
=137	=137	=137	=137	=137	=137	=137	=137	=137	=137
*>Letter>B	*>Letter>B	*>Letter>B	*>Letter>B	*>Letter>B	*>Letter>B	*>Letter>B	*>Letter>B	*>Letter>B	*>Letter>B
*>Label>Solo	*>Label>Solo	*>Label>Solo	*>Label>Solo	*>Label>Solo	*>Label>Solo	*>Label>Solo	*>Label>Solo	*>Label>Solo	*>Label>Solo
1g_	_	1c] 1e] 1cc]	_	1GM	newline	guitar	.	225.052	G:maj
=138	=138	=138	=138	=138	=138	=138	=138	=138	=138
2g]	_	2d 2b	_	1DM	.	guitar	.	226.698	D:maj
8g	rea	8B 8d	rea	.	.	.	.	.	.
8a	_	8c 8e	_	.	.	.	.	.	.
8g	dy	8B 8d	dy	.	.	.	b	.	.
[8g	gone	[8B [8d	gone	.	.	.	C	.	.
=139	=139	=139	=139	=139	=139	=139	=139	=139	=139
8g]	_	8B] 8d]	_	1CM	.	guitar	.	228.344	C:maj
4f	_	4A 4c	_	.	.	.	.	.	.
8r	.	8r	.	.	.	.	.	.	.
2r	.	2r	.	.	.	.	.	.	.
=140	=140	=140	=140	=140	=140	=140	=140	=140	=140
1r	.	1r	.	1CM	.	guitar	.	229.99	C:maj
=141	=141	=141	=141	=141	=141	=141	=141	=141	=141
[1g	Al	1c 1e 1cc	Al	1GM	newline	guitar	.	231.636	G:maj
=142	=142	=142	=142	=142	=142	=142	=142	=142	=142
2g]	_	2d 2b	_	1DM	.	guitar	.	233.268	D:maj
8g	rea	8B 8d	rea	.	.	.	.	.	.
8a	_	8c 8e	_	.	.	.	.	.	.
8g	dy	8B 8d	dy	.	.	.	b	.	.
[8g	gone	[8B [8d	gone	.	.	.	C	.	.
=143	=143	=143	=143	=143	=143	=143	=143	=143	=143
8g]	_	8B] 8d]	_	1CM	.	guitar	.	234.9	C:maj
4f	_	4A 4c	_	.	.	.	.	.	.
8r	.	8r	.	.	.	.	.	.	.
8r	.	2r	.	.	.	.	.	.	.
4c	All	.	.	.	.	.	.	.	.
[8~G	right	.	.	.	.	.	D	.	.
=144	=144	=144	=144	=144	=144	=144	=144	=144	=144
4~G]	_	1r	.	1CM	.	guitar	.	236.531	C:maj
8r	.	.	.	.	.	.	.	.	.
8c	N-	.	.	.	.	.	.	.	.
8c	-nigh-	.	.	.	.	.	.	.	.
8c	-ty	.	.	.	.	.	.	.	.
4~G	night!	.	.	.	.	.	D	.	.
=145	=145	=145	=145	=145	=145	=145	=145	=145	=145
*>Label>>Fadeout	*>Label>>Fadeout	*>Label>>Fadeout	*>Label>>Fadeout	*>Label>>Fadeout	*>Label>>Fadeout	*>Label>>Fadeout	*>Label>>Fadeout	*>Label>>Fadeout	*>Label>>Fadeout
[1g	Al	1c 1e 1cc	Al	1GM	newline	guitar	.	238.163	G:maj
=146	=146	=146	=146	=146	=146	=146	=146	=146	=146
2g]	_	2d 2b	_	1DM	.	guitar	.	239.801	D:maj
8g	rea	8B 8d	rea	.	.	.	.	.	.
8a	_	8c 8e	_	.	.	.	.	.	.
8g	dy	8B 8d	dy	.	.	.	b	.	.
[8g	gone	[8B [8d	gone	.	.	.	C	.	.
=147	=147	=147	=147	=147	=147	=147	=147	=147	=147
8g]	_	8B] 8d]	_	1CM	.	guitar	.	241.439	C:maj
4f	_	4A 4c	_	.	.	.	.	.	.
8r	.	8r	.	.	.	.	.	.	.
2r	.	2r	.	.	.	.	.	.	.
=148	=148	=148	=148	=148	=148	=148	=148	=148	=148
1r	.	1r	.	1CM	.	guitar	.	243.077	C:maj
=149	=149	=149	=149	=149	=149	=149	=149	=149	=149
[1g	Al	1c 1e 1cc	Al	1GM	newline	guitar	.	244.715	G:maj
=150	=150	=150	=150	=150	=150	=150	=150	=150	=150
2g]	_	2d 2b	_	1DM	.	guitar	.	246.354	D:maj
8g	rea	8B 8d	rea	.	.	.	.	.	.
8a	_	8c 8e	_	.	.	.	.	.	.
8g	dy	8B 8d	dy	.	.	.	b	.	.
8g	gone	8B 8d	gone	.	.	.	C	.	.
=151	=151	=151	=151	=151	=151	=151	=151	=151	=151
1r	.	1r	.	1CM	.	guitar	.	247.994	C:maj
=152	=152	=152	=152	=152	=152	=152	=152	=152	=152
1r	.	1r	.	1CM	.	guitar	.	249.633	C:maj
r;	.	r;	.	1r;	.	r	.	252.912	N.C.
r;	.	r;	.	1r;	.	r	.	255.504	N.C.
*-	*-	*-	*-	*-	*-	*-	*-	*-	*-
!!!BillboardChartDate: 1974/05/04
!!!BillboardPeak: 32
!!!BillboardWeeksOnChart: 15
!!!COC: Eagles
!!!ENC: Nathaniel Condit-Schultz
!!!EST: Awating manual error checking and editing.
!!!OTL: Already Gone
!!!RDF**chordsym: original McGill chord annotation + (implied pitch class set, with bass pitch in first position)
!!!RDF**harmony: **recip + pitch class of root + harmonic quality
!!!RDF**leadinstrument: original McGill primary instrumentation annotation
!!!RDF**phrase: newline = linebreak in original McGill transcription
!!!RDF**timestamp: McGill audio timestamp in seconds
!!!RDT: 2017/01/12/
!!!SampleActualRank: 97
!!!SampleID#: 0209
!!!SampleTargetRank: 99
